X: 14
T: Song Sung after Raising the Sacred Pole (a)
C: Teton Sioux band 1911-1914
N: Derived from sioux014.krn
O: South Dakota, U.S.A.
N: Teton Sioux Music by Frances Densmore, 1918
Z: transcribed to **kern format by Craig Sapp
L: 1/8
M: 2/4
Q: 1/4=58
K: D clef=treble
%%linebreak <none>
A B/ A/A2 [I:setbarnb 2]| 
A4 ]|:  
F G/ F/F2 | 
F4 | 
F A/ G/ F/ E3/ | 
E4 | 
D F/ E/E2 | 
E4 | 
D> DD2- | 
D4[K:clef=bass] | 
B,> D D D | 
D DD2 | 
B,> B,B,2- | 
B,4 | 
F,> B, B, B, | 
B, B,B,2 | 
B,> B, B,/ B,3/ | 
F,> F, F,/ F,3/ | 
F,4- | 
F,4 :|]  



